build/img/arrow2.svg

<svg width="10" height="14" viewBox="0 0 10 14" fill="none" xmlns="http://www.w3.org/2000/svg">
<path d="M8.88828 7.54628L2.6581 13.7763C2.51401 13.9206 2.32165 14 2.11655 14C1.91144 14 1.71909 13.9206 1.57499 13.7763L1.11618 13.3176C0.81763 13.0188 0.81763 12.533 1.11618 12.2345L6.34781 7.0029L1.11038 1.76547C0.966279 1.62126 0.886719 1.42901 0.886719 1.22402C0.886719 1.0188 0.966279 0.826562 1.11038 0.682239L1.56918 0.223657C1.7134 0.0794468 1.90564 0 2.11074 0C2.31585 0 2.5082 0.0794468 2.6523 0.223657L8.88828 6.45941C9.03272 6.60408 9.11205 6.79723 9.1116 7.00256C9.11205 7.20869 9.03272 7.40173 8.88828 7.54628Z" fill="#D64374"/>
</svg>

<svg width="10" height="14" fill="none" xmlns="http://www.w3.org/2000/svg"><path d="M8.888 7.546l-6.23 6.23a.76.76 0 01-.541.224.76.76 0 01-.542-.224l-.459-.458a.767.767 0 010-1.083l5.232-5.232L1.11 1.765a.76.76 0 01-.223-.541c0-.205.08-.397.223-.542l.46-.458A.76.76 0 012.11 0a.76.76 0 01.542.224l6.236 6.235a.761.761 0 01.224.544c0 .206-.08.399-.224.543z" fill="#D64374"/></svg>
